Obsidian/actions/24s/align-horizontal-left-to-anchor.svg

<svg height="24" viewBox="0 0 24 24" width="24" xmlns="http://www.w3.org/2000/svg"><path d="m1 0v2h2v-2zm2 2v14h2v-1h10v-4h-10v-4h10v-4h-10v-1z" fill="#bebebe" transform="translate(4 4)"/></svg>

<svg xmlns="http://www.w3.org/2000/svg" width="24" height="24" viewBox="0 0 24 24">
 <defs>
  <style id="current-color-scheme" type="text/css">
   .ColorScheme-Text { color:#bebebe; } .ColorScheme-Highlight { color:#4285f4; }
  </style>
 </defs>
 <path style="fill:currentColor" class="ColorScheme-Text" d="M 1 0 L 1 2 L 3 2 L 3 0 L 1 0 z M 3 2 L 3 16 L 5 16 L 5 15 L 15 15 L 15 11 L 5 11 L 5 7 L 15 7 L 15 3 L 5 3 L 5 2 L 3 2 z" transform="translate(4 4)"/>
</svg>
